X: 42840
T: Wild And Free
R: reel
M: 4/4
K: Dmajor
ABcd e2 dc|B2 gB aBgB|ABcd e2 dc|B2 gBcA A2:|
eaba gaba|gedf g2 ag|eaba gaba|gedB AF D2|
eaag a2 ba|gedf g2 ag|eaag e2 dc|B2 gB AF D2|
EGBG dGBG|dGBG AF D2|DGBG dGBG|dBAc BG D2|
EGBG dGBG|dGBG AF D2|DGBG dGAc|dBAc AGFB|
dg g2 dgbg|agbg ageg|dg g2 dgbg|agab g2 fe|
dg g2 dgbg|agbg agef|gedB ABce|gedB AF D2||

